X:1
T:Since tears could not obtain -  East
T:James Gibb editions
T:#
%%score { 1 | 2 } 3 4 { ( 5 6 7 ) | 8 }
L:1/8
Q:1/4=108
M:4/4
K:F
V:1 treble nm="Soprano I" snm="S"
V:2 treble 
V:3 treble nm="Alto" snm="A"
V:4 treble nm="Tenor" snm="T"
V:5 treble nm="Practice"
V:6 treble 
V:7 treble 
V:8 bass 
V:1
 g8 | ^f4 z2"^Since tears could not obtain" d2 | _e3 f g4- | g4 _e4 | d4 z2 G2 | B3 c d4- | %6
w: Since|tears could|not ob- tain|* of|her, could|not ob- tain|
 d4 (A4- | A2 GF"^Michael East\n(c.1580-1648)" G4) ||[M:4/4] A4 A4 | G4 z2 c2 | _e3 f g4- | g4 G4 | %12
w: * of||her, since|tears could|not ob- tain|* of|
 G8 | z2 _E2 G3 A | B3 B G2 g2 | g3 f _e2 c2 | =B2 c2 c2 B2 | c8 | z4 _e4 | d8 | z4 z2 G2 | %21
w: her,|could not ob-|tain of her some|small com- pas- si-|on, com- pas- si-|on,|since|tears|could|
 B3 c d4- | d4 d4 | d4 z4 | z4 B4 | A4 z2 A2 | B3 c d4- | d4 B4 | A4 z2 d2 | d3 c B2 G2 | %30
w: not ob- tain|* of|her,|since|tears could|not ob- tain|* of|her some|small com- pas- si-|
 ^F2 G2 G2 F2 | G8 | z4 z2 d2 | d2 B2 A3 A | =B8 | z8 | z4 d4 | e4 ^f4 | g8 | z4 g4 | g4 c4 | %41
w: on, com- pas- si-|on,|some|small com- pas- si-|on,||bid|me re-|frain,|de-|spair bid|
 f6 f2 | _e8 | z4 f4 | d4 c4 | B6 B2 | A4 A4 | ^F8 | z8 | z4 g4 | _e8 | z4 d4 | A4 B4 | A6 G2 | %54
w: me re-|frain,|de-|spair bid|me re-|frain sad|tears,||sad|tears,|sad|tears and|la- men-|
 (^F2 G4) F2 | G8- | G8 | d4 c4- | c2 B2 A3 A ||[M:3/2] =B8 z2 d2 |[M:4/4] d4 c2 B2- || %61
w: ta\- * ti-|on,||and la\-|* men- ta- ti-|on, and|though I still|
[M:3/4] B2 A2 B2- | BB B2 A2 ||[M:4/4] G4 ^F4 | z8 ||[M:3/4] z6 |[M:3/4] f4 e2 || %67
w: * did see|* her deep dis-|dain- ing,|||but my|
[M:4/4] d4 c2 B2 ||[M:3/4] A4 =B2 | d4 c2 ||[M:4/4] B4 A2 d2- ||[M:3/4] d2 ^c2 d2 | f4 e2 || %73
w: love still re|main- ing,|but my|love still re\-|* main- ing,|but my|
[M:4/4] d4 c2 B2 ||[M:3/4] A4 =B2 |[Q:1/4=103][Q:1/4=103] d4[Q:1/4=102][Q:1/4=102] c2 || %76
w: love still re-|main- ing,|but my|
[M:4/4][Q:1/4=101][Q:1/4=101] B4[Q:1/4=100][Q:1/4=100] A2[Q:1/4=100][Q:1/4=100] G2 | %77
w: love still re-|
[Q:1/4=99][Q:1/4=99] (^F2[Q:1/4=98][Q:1/4=98] G4[Q:1/4=98][Q:1/4=98] F2) | %78
w: main\- * *|
[Q:1/4=97][Q:1/4=97] G8 |] %79
w: ing.|
V:2
 z8 | z8 | z8 | z8 | z8 | z8 | z8 | g8 ||[M:4/4] ^f4 z2 d2 | _e3 f g4- | g4 _e4 | d4 d4 | c8- | %13
w: |||||||Since|tears could|not ob- tain|* of|her, since|tears,|
 c8 | z8 | z4 z2 g2 | g2 _e2 d3 d | e8 | c8 | =B4 z2 G2 | B3 c d4- | d4 B4 | A4 z2 A2 | B3 c d4- | %24
w: ||some|small com- pas- si-|on,|since|tears could|not ob- tain|* of|her, could|not ob- tain|
 d4 d4 | d8 | z8 | z2 B2 d3 e | f2 d2 d2 B2 | A4 z2 d2 | d2 B2 A3 A | =B4 z2 d2 | d3 c B2 G2 | %33
w: * of|her,||could not ob-|tain of her, of|her some|small com- pas- si-|on, some|small com- pas- si-|
 ^F2 G2 G2 F2 | G8 | z4 d4 | d4 G4 | c6 c2 | B4 _e4 | _e4 d4 | G8 | z8 | z4 g4 | g4 d4 | f8 | d8 | %46
w: on, com- pas- si-|on,|de-|spair bid|me re-|frain, bid|me re-|frain,||de-|spair bid|me|re-|
 d8 | z4 A4 | ^F8 | G8 | G4 c4 | A8 | z8 | d4 c4- | c2 B2 A3 A | G4 c4 | =B4 d4 | f6 c2 | d6 d2 || %59
w: frain|sad|tears,|sad|tears, sad|tears||and la-|* men- ta- ti-|on, sad|tears and|la- men-|ta- ti-|
[M:3/2] d8 z2 f2 |[M:4/4] f3 f f2 d2 ||[M:3/4] c4 d2 | d4 d2 ||[M:4/4] d4 d4 | z2 d2 c2 A2 || %65
w: on, and|though I still did|see her|deep dis-|dain- ing,|yet left I|
[M:3/4] B4 A2 |[M:3/4] d4 c2 ||[M:4/4] B4 A2 G2- ||[M:3/4] G2 ^F2 G2 | =f4 e2 ||[M:4/4] d4 c2 B2 || %71
w: weep- ing,|but my|love still re-|* main- ing,|but my|love still re-|
[M:3/4] A4 A2 | d4 c2 ||[M:4/4] B4 A2 G2- ||[M:3/4] G2 ^F2 G2 | =f4 e2 ||[M:4/4] d4 c2 B2 | %77
w: main- ing,|but my|love still re\-|* main- ing,|but my|love still re-|
 (A2 G2 A4) | =B8 |] %79
w: main\- * *|ing.|
V:3
 z8 | z8 | C8- | C8 | =B,8 | z2 G,2 B,3 C | D8 | _E8 ||[M:4/4] D8 | z8 | z4 G4 | G4 z2 D2 | %12
w: ||Since||tears|could not ob-|tain|of|her,||since|tears could|
 _E3 F G4- | G4 _E4 | D2 G2 G2 _E2 | D3 D G2 G2 | G6 G2 | G8 | z8 | z8 | F8- | F8 | ^F4 z2 D2 | %23
w: not ob- tain|* of|her some small com-|pas- si- on, com-|pas- si-|on,|||since||tears could|
 G3 A B4- | B4 G4 | D8- | D8 | D8 | z4 z2 G2 | ^F4 G4 | D6 D2 | G2 d2 d2 B2 | A3 A G2 D2 | D6 D2 | %34
w: not ob- tain|* of|her|||some|small com-|pas- si-|on, some small com-|pas- si- on, com-|pas- si-|
 D4 G4 | G4 D4 | B8 | A8 | G8- | G8 | z4 G4 | A4 =B4 | c8 | G4 B4- | B4 A4 | G6 G2 | ^F8 | z4 D4 | %48
w: on, de-|spair bid|me|re-|frain,||bid|me re-|frain,|de- spair|* bid|me re-|frain|sad|
 D8- | D8 | z4 A4 | ^F8 | z4 G4 | F6 _E2 | D6 D2 | D4 _E4 | D4 B4 | A6 G2 | (^F2 G4) F2 || %59
w: tears,||sad|tears|and|la- men-|ta- ti-|on, sad|tears and|la- men-|ta\- * ti-|
[M:3/2] G8 z2 B2 |[M:4/4] F3 F F2 F2 ||[M:3/4] F4 F2 | G4 A2 ||[M:4/4] B4 A4 | z2 D2 E2 ^F2 || %65
w: on, and|though I still did|see her|deep dis-|dain- ing,|yet left I|
[M:3/4] G4 D2 |[M:3/4] A4 A2 ||[M:4/4] F4 F2 D2 ||[M:3/4] D4 D2- | D2 A2 A2 ||[M:4/4] F4 A2 G2 || %71
w: weep- ing,|but my|love still re-|main- ing,|* but my|love still re-|
[M:3/4] E4 ^F2 | A4 A2 ||[M:4/4] F4 F2 D2 ||[M:3/4] D4 D2- | D2 A2 A2 ||[M:4/4] F4 F2 D2 | D8 | %78
w: main- ing,|but my|love still re-|main- ing,|* but my|love still re-|main-|
 D8 |] %79
w: ing.|
V:4
[K:C] z8 | z8 | z8 | z8 | z8 | z8 | z8 | z8 ||[K:F][M:4/4][K:treble-8] z8 | c8- | c8 | =B4 z2 G2 | %12
w: |||||||||Since||tears could|
 c3 d _e4- | e4 c4 | G4 z2 c2 | =B4 c4 | G6 G2 | C8 | z4 c4 | G8 | z8 | z8 | z8 | B8- | B8 | %25
w: not ob- tain|* of|her some|small com-|pas- si-|on,|since|tears,||||since||
 ^F4 z2 D2 | G3 A B4- | B4 G4 | D4 z4 | z8 | z8 | z4 z2 G2 | ^F4 G4 | D6 D2 | G8- | G8 | z8 | z8 | %38
w: tears could|not ob- tain|* of|her|||some|small com-|pas- si-|on,||||
 z4 c4 | c4 G4 | _e8 | d8 | c8 | z4 B4 | B4 F4 | G6 G2 | D8- | D8 | z4 e4 | =B8 | c8 | d8 | z8 | %53
w: de-|spair bid|me|re-|frain,|de-|spair bid|me re-|frain||sad|tears,|sad|tears,||
 z8 | z4 d4 | =B4 c4 | G4 G4 | F6 _E2 | D6 D2 ||[M:3/2] G8 z2 B2 |[M:4/4][K:treble-8] B3 B A2 B2 || %61
w: |sad|tears, sad|tears and|la- men-|\-ta- ti-|on, and|though I still did|
[M:3/4] F4 B2 | G4 ^F2 ||[M:4/4] G4 d4 | z8 ||[M:3/4] z6 |[M:3/4][K:treble-8] d4 A2 || %67
w: see her|sharp dis-|dain- ing,|||but my|
[M:4/4] B4 F2 G2 ||[M:3/4] D4 G2 | d4 A2 ||[M:4/4] B4 F2 G2 ||[M:3/4] A4 D2 | d4 A2 || %73
w: love still re-|main- ing,|but my|love still re-|main- ing,|but my|
[M:4/4] B4 F2 G2 ||[M:3/4] D4 G2 | d4 A2 ||[M:4/4] B4 F2 G2 | D8 | G8 |] %79
w: love still re-|main- ing,|but my|love still re-|main-|ing.|
V:5
 g8 | ^f4 z2 d2 | _e3 f g4- | g4 _e4 | d4 z2 G2 | B3 c d4- | d4 A4- | A2 GF G4 ||[M:4/4] A4 A4 | %9
 G4 z2 c2 | _e3 f g4- | g4 G4 | G8 | z2 _E2 G3 A | B3 B G2 g2 | g3 f _e2 c2 | =B2 c2 c2 B2 | c8 | %18
 z4 _e4 | d8 | x4 x2 G2 | B3 c d4- | d4 d4 | d4 x4 | x4 B4 | A4 z2 A2 | B3 c d4- | d4 B4 | %28
 A4 x2 d2 | d3 c B2 G2 | ^F2 G2 G2 F2 | G8 | x4 x2 d2 | d2 B2 A3 A | =B8 | x8 | x4 d4 | e4 ^f4 | %38
 g8 | x4 g4 | g4 c4 | f6 f2 | _e8 | x4 f4 | d4 c4 | B6 B2 | A4 A4 | ^F8 | x8 | z4 g4 | _e8 | %51
 z4 d4 | A4 B4 | A6 G2 | ^F2 G4 F2 | G8- | G8 | d4 c4- | c2 B2 A3 A ||[M:3/2] =B8 z2 d2 | %60
[M:4/4] d3 d c2 B2- ||[M:3/4] B2 A2 B2- | BB B2 A2 ||[M:4/4] G4 ^F4 | x8 ||[M:3/4] x6 | %66
[M:3/4] f4 e2 ||[M:4/4] d4 c2 B2 ||[M:3/4] A4 =B2 | d4 c2 ||[M:4/4] B4 A2 d2- ||[M:3/4] d2 ^c2 d2 | %72
 f4 e2 ||[M:4/4] d4 c2 B2 ||[M:3/4] A4 =B2 | d4 c2 ||[M:4/4] B4 A2 G2 | ^F2 G4 F2 | G8 |] %79
V:6
 x8 | x8 | x8 | x8 | x8 | x8 | x8 | g8 ||[M:4/4] ^f4 z2 d2 | _e3 f g4- | g4 _e4 | d4 d4 | c8- | %13
 c8 | x8 | x6 g2 | g2 _e2 d3 d | e8 | c8 | =B4 z2 G2 | B3 c d4- | d4 B4 | A4 x2 A2 | B3 c d4- | %24
 d4 d4 | d8 | x8 | z2 B2 d3 e | f2 d2 d2 B2 | A4 x2 d2 | d2 B2 A3 A | =B2- B2 x2 d2 | d3 c B2 G2 | %33
 ^F2 G2 G2 F2 | G8 | x4 d4 | d4 G4 | c6 c2 | B4 _e4 | _e4 d4 | G8 | x8 | x4 g4 | g4 d4 | f8 | d8 | %46
 d8 | z4 A4 | ^F8 | G8 | G4 c4 | A8 | x8 | d4 c4- | c2 B2 A3 A | G4 c4 | =B4 d4 | f6 c2 | d6 d2 || %59
[M:3/2] d8 z2 f2 |[M:4/4] f3 f f2 d2 ||[M:3/4] c4 d2 | d4 d2 ||[M:4/4] d4 d4 | z2 d2 c2 A2 || %65
[M:3/4] B4 A2 |[M:3/4] d4 c2 ||[M:4/4] B4 A2 G2- ||[M:3/4] G2 ^F2 G2 | =f4 e2 ||[M:4/4] d4 c2 B2 || %71
[M:3/4] A4 A2 | d4 c2 ||[M:4/4] B4 A2 G2- ||[M:3/4] G2 ^F2 G2 | =f4 e2 ||[M:4/4] d4 c2 B2 | %77
 A2 G2 A4 | =B8 |] %79
V:7
 x8 | x8 |[I:staff +1] C8- | C8 | =B,8 |[I:staff -1] x2[I:staff +1] G,2 B,3 C | D8 | _E8 || %8
[M:4/4] D8 |[I:staff -1] x8 | x4 G4 | G4 x2[I:staff +1] D2 | _E3 F G4- | G4 _E4 | %14
[I:staff -1] D2 G2 G2[I:staff +1] _E2 | D3 D[I:staff -1] G2 G2 | G6 G2 | G8 | x8 | x8 | F8- | F8 | %22
 ^F4 z2 D2 | G3 A B4- | B4 G4 |[I:staff +1] D8- | D8 | D8 |[I:staff -1] x4 x2 G2 | ^F4 G4 | D6 D2 | %31
 G2 d2 d2 _B2 | A3 A G2 D2 | D6 D2 | D4 G4 | G4 D4 | B8 | A8 | G8- | G8 | x4 G4 | A4 =B4 | c8 | %43
 G4 B4- | B4 A4 | G6 G2 | ^F8 | z4 D4 |[I:staff +1] D8- | D8 |[I:staff -1] x4 A4 | ^F8 | x4 G4 | %53
 F6 _E2 |[I:staff +1] D4[I:staff -1] x2[I:staff +1] D2 | D4 _E4 | D4[I:staff -1] _B4 | A6 G2 | %58
 ^F2 G4 F2 ||[M:3/2] G8 z2 _B2 |[M:4/4] F3 F F2 F2 ||[M:3/4] F4 F2 | G4 A2 ||[M:4/4] B4 A4 | %64
 z2 D2 E2 ^F2 ||[M:3/4] G4 D2 |[M:3/4] A4 A2 ||[M:4/4] F4 F2 D2 ||[M:3/4] D4 D2- | D2 A2 A2 || %70
[M:4/4] F4 A2 G2 ||[M:3/4] E4 ^F2 | A4 A2 ||[M:4/4] F4 F2 D2 ||[M:3/4] D4[I:staff +1] D2- | %75
 D2[I:staff -1] A2 A2 ||[M:4/4] F4 F2 D2 |[I:staff +1] D8 | D8 |] %79
V:8
 z8 | z8 | x8 | x8 | x8 | x8 | x8 | x8 ||[M:4/4] x8 | C8- | C8 | =B,4 z2 G,2 | C3 D _E4- | E4 C4 | %14
 G,4 z2 C2 | =B,4 C4 | G,6 G,2 | C,8 | z4 C4 | G,8 | z8 | z8 | z8 | B,8- | B,8 | ^F,4 z2 D,2 | %26
 G,3 A, B,4- | B,4 G,4 | D,4 z4 | z8 | z8 | z4 z2 G,2 | ^F,4 G,4 | D,6 D,2 | G,8- | G,8 | z8 | z8 | %38
 z4 C4 | C4 G,4 | _E8 | D8 | C8 | z4 B,4 | B,4 F,4 | G,6 G,2 | D,8- | D,8 | x4 E4 | =B,8 | C8 | %51
 D8 | z8 | z8 | x4 D2 x2 | =B,4 C4 | G,4 G,4 | F,6 _E,2 | D,6 D,2 ||[M:3/2] G,8 z2 B,2 | %60
[M:4/4] B,3 B, A,2 B,2 ||[M:3/4] F,4 B,2 | G,4 ^F,2 ||[M:4/4] G,4 D4 | z8 ||[M:3/4] z6 | %66
[M:3/4] D4 A,2 ||[M:4/4] B,4 F,2 G,2 ||[M:3/4] D,4 G,2 | D4 A,2 ||[M:4/4] B,4 F,2 G,2 || %71
[M:3/4] A,4 D,2 | D4 A,2 ||[M:4/4] B,4 F,2 G,2 ||[M:3/4] D,4 G,2 | D2 D2 A,2 || %76
[M:4/4] B,4 F,2 G,2 | D,8 | G,8 |] %79

